X:1
T:Sonata No. 14 "Moonlight Sonata"
T:Allegretto
T:Sonata No. 14 "Moonlight Sonata"
T:2nd Movement, Opus 27, No. 2
T:Ludwig van Beethoven (1770 - 1827)
T:Public Domain
T:Public Domain
C:Ludwig van Beethoven
Z:Public Domain
%%score { ( 1 3 ) | ( 2 4 ) }
L:1/8
Q:1/4=120
M:3/4
K:Db
V:1 treble nm="Piano" snm="Pno."
V:3 treble 
V:2 bass 
V:4 bass 
V:1
!p!"^Allegretto\nLa prima parte senza repetizione" ([Ad]2 | [Ac]4 [=GB]2 | .[Ae]2) z2 .[Fd]2 | %3
 .[Ac]2 z2 .[=GB]2 | .A2 z2 ([d_g]2 | [df]4 [ce]2 | .[da]2) z2 .[Bg]2 | .[df]2 z2 .[ce]2 | %8
 .d2 z2 ([Dd]2- | [Dd]2) [Cc]2 ([B,B-]2 | B2 e2) (d2- | d2 c2) B2- | B2 A2 ([Gg]2- | %13
 [Gg]2 [Ff]2) ([Ee-]2 | e2 a2) (g2- | g2 f2) (e2- | e2 d2) |: [Fd]2 | [Fd]4 [Fd]2 | (d2 c2) _c2 | %20
 _c4 c2 | (_c2 B2) (B2 | =c4 d2 |!>(! e4) G2-!>)! |!p! G2 F2 BG | [DF]2 [CE]2 ([Dd]2 | %26
 [Cc]4 [B,B]2 | .[Ee]2) z2 (d2- | d2 c2) (B2- | B2 A2) ([_G_g]2 | [Ff]4 [Ee]2 | %31
 .[Aa]2) z2 ([Gg]2- | [Gg]2 [Ff]2) .[Ee]2 | .[Aa]2 z2 ([Gg]2- | [Gg]2 [Ff]2) ([Bb]2- | %35
 [Bb]2 [Aa]2) z2 | (C4 ED) | [F,D]2 z2!fine! ::"^Trio." [F,F]2- | [F,F]4 [G,G]2- | [G,G]4 ([Ee]2- | %41
 [Ee]2 [Cc]2) .[A,A]2 | ([Dd]2 [Ff]2) [F,F]2- | [F,F]4 [G,G]2- | [G,G]4 ([Gg]2- | %45
 [Gg]2 [Bb]2) .[Cc]2 | ([Ee]2 [Dd]2) ::!pp! [Ff]2- | [Ff]4 [B,B]2- | [B,B]4 [Ee]2- | %50
 [Ee]4 [A,A]2- | [A,A]4 [Dd]2- | [Dd]4 [G,G]2- | [G,G]4 ([F,F]2- | [F,F]2 [A,A]2 [_C_c]2- | %55
 [Cc]2 [B,B]2) [Dd]2- | [Dd]4[K:bass] [G,G]2- | [G,G]4 [F,F]2- | [F,F]4 [=E,=E]2- | %59
 [E,E]4 [F,F]2- | [F,F]4 [G,G]2- | [G,G]4 ([F,F]2- |!p! [F,F]2 [G,G]2) .[C,C]2 | %63
"_Allegretto da capo." .[D,D]2 z2!D.C.! :| %64
V:2
 (F2 | E4 D2 | .C2) z2 .[D,B,]2 | .[E,E]2 z2 .[E,D]2 | .[A,C]2 z2[K:treble] (B2 | A4 G2 | %6
 .F2) z2 .[G,E]2 | .[A,A]2 z2 .[A,G]2 | .[DF]2 z2[K:bass] ([F,A,]2 | [E,A,]4 [D,=G,]2 | %10
 .[C,C]2) z2 .[D,B,]2 | .[E,E]2 z2 .[E,D]2 | .[A,C]2 z2 ([B,D]2 | [A,D]4 [G,C]2 | %14
 .[F,F]2) z2 .[G,E]2 | .[A,A]2 z2 .[A,G]2 | .[DF]2 z2 |: (D2 | (B,4 A,2 | =G,2 A,2)) A,2 | %20
 (A,4 _G,2 | F,2 G,2) (G,2 | [E,A,]4 [D,A,]2 | [C,A,]6) | (A,4 G,E,) | A,4 ([F,A,]2 | %26
 [E,A,]4 [D,=G,]2 | .[C,C]2) z2 .[D,B,]2 | .[E,E]2 z2 .[E,D]2 | .[A,C]2 z2 (.[B,D]2 | %30
 [A,D]4 [G,C]2 | .[F,D]2) z2 ([B,D]2 | [A,D]4 [G,C]2 | .[F,D]2) z2 [B,D]2 | [A,D]4 (((([=G,D=E]2 | %35
 [A,DF]2)))) z4 | [A,,,A,,]6 | [D,,A,,]2 z2 :: z2 | A,,6- | A,,6- | A,,6- | A,,6 | A,,6- | A,,6- | %45
 A,,4 A,,2 | A,,4 :: z2 |!pp! [=D,A,]6 | [D,=G,]6 | [C,_G,]6 | [_C,F,]6 | D,6- | D,6- | D,6- | %55
 D,6 | D,6- | D,6- | D,6- | D,6 | D,6- | D,6 | x6 | .D,,2 z2 :| %64
V:3
 x2 | x6 | x6 | x6 | x6 | x6 | x6 | x6 | x6 | x6 | .E2 z2 .F2 | .A2 z2 .=G2 | x6 | x6 | %14
 .A2 z2 .B2 | .d2 z2 .c2 | x4 |: x2 | x6 | E4 E2 | E4 E2 | D4 D2 | G4 F2 | G4 E2- | E2 D2 B,2 | %25
 x6 | x6 | x4 .F2 | .A2 z2 .=G2 | x6 | x6 | x6 | x6 | x6 | x6 | x6 | G,6 | x4 :: x2 | x6 | x6 | %41
 x6 | x6 | x6 | x6 | x6 | x4 :: x2 | x6 | x6 | x6 | x6 | x6 | x6 | x6 | x6 | x4[K:bass] x2 | x6 | %58
 x6 | x6 | x6 | x6 | x6 | x4 :| %64
V:4
 x2 | x6 | x6 | x6 | x4[K:treble] x2 | x6 | x6 | x6 | x4[K:bass] x2 | x6 | x6 | x6 | x6 | x6 | x6 | %15
 x6 | x4 |: x2 | x6 | x6 | x6 | x6 | x6 | x6 | D,4 G,,2 | A,,4 x2 | x6 | x6 | x6 | x6 | x6 | x6 | %32
 x6 | x6 | x6 | x6 | x6 | x4 :: x2 | D,,6 | E,,6 | G,,6 | F,,6 | D,,6 | E,,6 | A,,,4 A,,2 | D,,4 :: %47
 x2 | x6 | x6 | x6 | x6 | (B,,6 | A,,6 | D,,2 F,,2 A,,2 | G,,6) | (B,,6 | A,,6 | =G,,6 | A,,6) | %60
 (B,,6 | A,,6- | [A,,,A,,]4) .A,,2 | x4 :| %64

